assets/img/svg/tag.svg

<svg width="8" height="8" viewBox="0 0 8 8" fill="none" xmlns="http://www.w3.org/2000/svg">
<path d="M6.37431 6.38398L7.31947 4.58468L4.90558 3.79888L7.25908 2.8553L6.1907 1.12631L4.31318 2.87116L4.68032 0.30896L2.65819 0.379574L3.21177 2.90962L1.2085 1.30029L0.263339 3.09959L2.67692 3.8767L0.323731 4.82897L1.3921 6.55796L3.25393 4.85716L2.90248 7.37531L4.92462 7.3047L4.39837 4.8172L6.37431 6.38398Z" fill="#F8CA21"/>
</svg>

<svg width="8" height="8" fill="none" xmlns="http://www.w3.org/2000/svg"><path d="M6.374 6.384l.945-1.8L4.906 3.8l2.353-.944-1.068-1.729-1.878 1.745L4.68.31 2.658.38l.554 2.53L1.208 1.3.263 3.1l2.414.777-2.353.952 1.068 1.729 1.862-1.7-.352 2.517 2.023-.07-.527-2.488 1.976 1.567z" fill="#F8CA21"/></svg>
